X: 1
T: Miriam & Georg Gesele's Strathspey
C: Anselm Lingnau (2002)
R: strathspey
B: Anselm Lingnau "Nine Weddings (And No Funeral)" p.13
F: http://www.anselms.net/SCD/wbook/wbook.pdf
Z: 2012 John Chambers <jc:trillian.mit.edu>
M: C
L: 1/8
K: A
E2 |\
"A"A2 c<e "E"B3 c | "Bm"d>B FB "E7"A>G FE |\
"D"F2 GA "A/C#"EAce | "Bm"d2 c<A "E7"B2 E2 |
"A"A2 c<e "Bm"f3 d | "E7"G2 B<c "A"e3 c |\
"F#m"F2 A<F "E7"E>d B<G | "A"A2 "E7"A>B "A"A2 ||
Bc |\
"D"d2 d>B "E7"B<e ed | "A"c<a ag "D"f3 g |\
"A"a>e cA "Bm"f>d BF | "E7"G>A BG E2 Bc |
"Bm"d>e dB "E7"G<e fg | "A"a>e ca "Bm"fdBA |\
"E"G<E "(D)"A<F "E7"E>d BG | "A"A2 "E7"A>B "A"A2 |]
